svgs/duotone/file-powerpoint.svg

<svg xmlns="http://www.w3.org/2000/svg" viewBox="0 0 384 512"><!--! Font Awesome Pro 6.6.0 by @fontawesome - https://fontawesome.com License - https://fontawesome.com/license (Commercial License) Copyright 2024 Fonticons, Inc. --><path class="fa-secondary" style="fill:var(--fa-secondary-color,inherit);opacity:var(--fa-secondary-opacity,.4);" d="M0 64C0 28.7 28.7 0 64 0L224 0l0 128c0 17.7 14.3 32 32 32l128 0 0 288c0 35.3-28.7 64-64 64L64 512c-35.3 0-64-28.7-64-64L0 64zM112 264l0 104 0 56c0 13.3 10.7 24 24 24s24-10.7 24-24l0-32 44 0c42 0 76-34 76-76s-34-76-76-76l-68 0c-13.3 0-24 10.7-24 24zm48 24l44 0c15.5 0 28 12.5 28 28s-12.5 28-28 28l-44 0 0-56z"/><path class="fa-primary" style="fill:var(--fa-primary-color,inherit);opacity:var(--fa-primary-opacity,1);" d="M384 160L224 0l0 128c0 17.7 14.3 32 32 32l128 0zM136 240c-13.3 0-24 10.7-24 24l0 104 0 56c0 13.3 10.7 24 24 24s24-10.7 24-24l0-32 44 0c42 0 76-34 76-76s-34-76-76-76l-68 0zm68 104l-44 0 0-56 44 0c15.5 0 28 12.5 28 28s-12.5 28-28 28z"/></svg>

<svg xmlns="http://www.w3.org/2000/svg" viewBox="0 0 384 512"><!--! Font Awesome Pro 6.4.2 by @fontawesome - https://fontawesome.com License - https://fontawesome.com/license (Commercial License) Copyright 2023 Fonticons, Inc. --><path class="fa-primary" style="fill:var(--fa-primary-color,inherit);opacity:var(--fa-primary-opacity,1);" d="M384 160L224 0V128c0 17.7 14.3 32 32 32H384zM136 240c-13.3 0-24 10.7-24 24V368v56c0 13.3 10.7 24 24 24s24-10.7 24-24V392h44c42 0 76-34 76-76s-34-76-76-76H136zm68 104H160V288h44c15.5 0 28 12.5 28 28s-12.5 28-28 28z"/><path class="fa-secondary" style="fill:var(--fa-secondary-color,inherit);opacity:var(--fa-secondary-opacity,.4);" d="M0 64C0 28.7 28.7 0 64 0H224V128c0 17.7 14.3 32 32 32H384V448c0 35.3-28.7 64-64 64H64c-35.3 0-64-28.7-64-64V64zM136 240c-13.3 0-24 10.7-24 24V368v56c0 13.3 10.7 24 24 24s24-10.7 24-24V392h44c42 0 76-34 76-76s-34-76-76-76H136zm68 104H160V288h44c15.5 0 28 12.5 28 28s-12.5 28-28 28z"/></svg>
